X: 13370
T: Fleadh Ballina
R: reel
M: 4/4
K: Bminor
|:AG|FAAA FADA|FAdA FAdA|GBBB GBdB|ABdf edBA|
FAAA FADA|FAdA FAdA|GABG FAdB|AFE ADz:|
|:A2|dfff dfaf|dffe dfe|dceA eceA|eceA cdc BA|
dfff dfaf|dcdB AFD|FGAB GFAd|BAFE ADz:|

